Sources/FrostedUI/Resources/Icons.xcassets/tag16.imageset/tag-16.svg

<svg width="16" height="16" viewBox="0 0 16 16" fill="none" xmlns="http://www.w3.org/2000/svg" data-fui-icon="true">
  <path
    d="M14.1299 0C15.1627 0 16 0.837345 16 1.87012V7.03613C16 7.53207 15.8028 8.00772 15.4521 8.3584L8.60449 15.2061C8.09601 15.7144 7.4065 16 6.6875 16C5.9685 16 5.27899 15.7144 4.77051 15.2061L0.793945 11.2295C0.285622 10.721 0 10.0315 0 9.3125C0 8.5935 0.285623 7.90399 0.793945 7.39551L7.6416 0.547852C7.99228 0.197171 8.46793 1.38905e-05 8.96387 0H14.1299ZM8.96387 1.5C8.86576 1.50001 8.77153 1.53902 8.70215 1.6084L1.85449 8.45605C1.62747 8.68324 1.5 8.99132 1.5 9.3125C1.5 9.63368 1.62747 9.94177 1.85449 10.1689L5.83105 14.1455C6.05823 14.3725 6.36632 14.5 6.6875 14.5C7.00868 14.5 7.31677 14.3725 7.54395 14.1455L14.3916 7.29785C14.461 7.22848 14.5 7.13424 14.5 7.03613V1.87012C14.5 1.66577 14.3342 1.5 14.1299 1.5H8.96387ZM12 3C12.5523 3 13 3.44772 13 4C13 4.55228 12.5523 5 12 5C11.4477 5 11 4.55228 11 4C11 3.44772 11.4477 3 12 3Z"
    fill="currentColor"
  />
</svg>

<svg xmlns="http://www.w3.org/2000/svg" width="16" height="16" fill="none" data-fui-icon="true" viewBox="0 0 16 16"><path fill="currentColor" d="M14.13 0A1.87 1.87 0 0 1 16 1.87v5.166c0 .496-.197.972-.548 1.322l-6.848 6.848a2.71 2.71 0 0 1-3.833 0L.794 11.23a2.71 2.71 0 0 1 0-3.834L7.642.548A1.87 1.87 0 0 1 8.964 0zM8.964 1.5a.37.37 0 0 0-.262.108L1.854 8.456a1.21 1.21 0 0 0 0 1.713l3.977 3.976a1.21 1.21 0 0 0 1.713 0l6.848-6.847a.37.37 0 0 0 .108-.262V1.87a.37.37 0 0 0-.37-.37zM12 3a1 1 0 1 1 0 2 1 1 0 0 1 0-2"/></svg>
